assets/images/book-img1.svg

<svg width="50" height="50" viewBox="0 0 50 50" fill="none" xmlns="http://www.w3.org/2000/svg">
<g clip-path="url(#clip0_122_2102)">
<path d="M16.7708 4.21667H16.8117L16.8198 4.17664C17.2985 1.82445 19.3826 0.05 21.875 0.05H28.125C30.6174 0.05 32.6994 1.82442 33.1802 4.17668L33.1884 4.21667H33.2292H34.375C39.5161 4.21667 43.7 8.40053 43.7 13.5417V40.625C43.7 45.7661 39.5161 49.95 34.375 49.95H15.625C13.1527 49.9473 10.7825 48.9639 9.03427 47.2157C7.28608 45.4675 6.30274 43.0973 6.3 40.6249L6.3 13.5417C6.3 8.40053 10.4839 4.21667 15.625 4.21667H16.7708ZM35.3667 34.375C35.3667 34.638 35.2622 34.8902 35.0762 35.0762C34.8902 35.2622 34.638 35.3667 34.375 35.3667H23.9583C23.6953 35.3667 23.4431 35.2622 23.2571 35.0762C23.0711 34.8902 22.9667 34.638 22.9667 34.375C22.9667 34.112 23.0711 33.8598 23.2571 33.6738C23.4431 33.4878 23.6953 33.3833 23.9583 33.3833H34.375C34.638 33.3833 34.8902 33.4878 35.0762 33.6738C35.2622 33.8598 35.3667 34.112 35.3667 34.375ZM41.7167 13.5417C41.7167 9.49322 38.4234 6.2 34.375 6.2H32.2917C32.0287 6.2 31.7764 6.09552 31.5905 5.90955C31.4045 5.72357 31.3 5.47134 31.3 5.20833C31.3 3.4578 29.8755 2.03333 28.125 2.03333H21.875C20.1245 2.03333 18.7 3.4578 18.7 5.20833C18.7 5.47134 18.5955 5.72357 18.4095 5.90955C18.2236 6.09552 17.9713 6.2 17.7083 6.2H15.625C11.5766 6.2 8.28333 9.49322 8.28333 13.5417V40.625C8.28333 44.6734 11.5766 47.9667 15.625 47.9667H34.375C38.4234 47.9667 41.7167 44.6734 41.7167 40.625V13.5417ZM15.2289 32.9372C15.6102 32.5559 16.1274 32.3417 16.6667 32.3417C17.2059 32.3417 17.7231 32.5559 18.1044 32.9372C18.4858 33.3185 18.7 33.8357 18.7 34.375C18.7 34.9143 18.4858 35.4315 18.1044 35.8128C17.7231 36.1941 17.2059 36.4083 16.6667 36.4083C16.1274 36.4083 15.6102 36.1941 15.2289 35.8128C14.8476 35.4315 14.6333 34.9143 14.6333 34.375C14.6333 33.8357 14.8476 33.3185 15.2289 32.9372ZM23.9583 25.05H34.375C34.638 25.05 34.8902 25.1545 35.0762 25.3405C35.2622 25.5264 35.3667 25.7787 35.3667 26.0417C35.3667 26.3047 35.2622 26.5569 35.0762 26.7429C34.8902 26.9289 34.638 27.0333 34.375 27.0333H23.9583C23.6953 27.0333 23.4431 26.9289 23.2571 26.7429C23.0711 26.5569 22.9667 26.3047 22.9667 26.0417C22.9667 25.7787 23.0711 25.5264 23.2571 25.3405C23.4431 25.1545 23.6953 25.05 23.9583 25.05ZM15.2289 24.6039C15.6102 24.2226 16.1274 24.0083 16.6667 24.0083C17.2059 24.0083 17.7231 24.2226 18.1044 24.6039C18.4858 24.9852 18.7 25.5024 18.7 26.0417C18.7 26.5809 18.4858 27.0981 18.1044 27.4794C17.7231 27.8608 17.2059 28.075 16.6667 28.075C16.1274 28.075 15.6102 27.8608 15.2289 27.4794C14.8476 27.0981 14.6333 26.5809 14.6333 26.0417C14.6333 25.5024 14.8476 24.9852 15.2289 24.6039ZM23.9583 16.7167H34.375C34.638 16.7167 34.8902 16.8211 35.0762 17.0071C35.2622 17.1931 35.3667 17.4453 35.3667 17.7083C35.3667 17.9713 35.2622 18.2236 35.0762 18.4095C34.8902 18.5955 34.638 18.7 34.375 18.7H23.9583C23.6953 18.7 23.4431 18.5955 23.2571 18.4095C23.0711 18.2236 22.9667 17.9713 22.9667 17.7083C22.9667 17.4453 23.0711 17.1931 23.2571 17.0071C23.4431 16.8211 23.6953 16.7167 23.9583 16.7167ZM15.2289 16.2705C15.6102 15.8892 16.1274 15.675 16.6667 15.675C17.2059 15.675 17.7231 15.8892 18.1044 16.2705C18.4858 16.6519 18.7 17.1691 18.7 17.7083C18.7 18.2476 18.4858 18.7648 18.1044 19.1461C17.7231 19.5274 17.2059 19.7417 16.6667 19.7417C16.1274 19.7417 15.6102 19.5274 15.2289 19.1461C14.8476 18.7648 14.6333 18.2476 14.6333 17.7083C14.6333 17.1691 14.8476 16.6519 15.2289 16.2705Z" fill="#004B98" stroke="white" stroke-width="0.1"/>
</g>
<defs>
<clipPath id="clip0_122_2102">
<rect width="50" height="50" fill="white"/>
</clipPath>
</defs>
</svg>

<svg width="50" height="50" fill="none" xmlns="http://www.w3.org/2000/svg"><g clip-path="url(#a)"><path d="M16.77 4.217h.042l.008-.04A5.166 5.166 0 0 1 21.875.05h6.25a5.167 5.167 0 0 1 5.055 4.127l.008.04H34.375c5.141 0 9.325 4.184 9.325 9.325v27.083c0 5.141-4.184 9.325-9.325 9.325h-18.75A9.335 9.335 0 0 1 6.3 40.625V13.542c0-5.141 4.184-9.325 9.325-9.325h1.146Zm18.597 30.158a.992.992 0 0 1-.992.992H23.958a.992.992 0 0 1 0-1.984h10.417a.992.992 0 0 1 .992.992Zm6.35-20.833c0-4.049-3.294-7.342-7.342-7.342h-2.083a.992.992 0 0 1-.992-.992 3.179 3.179 0 0 0-3.175-3.175h-6.25A3.179 3.179 0 0 0 18.7 5.208a.992.992 0 0 1-.992.992h-2.083c-4.048 0-7.342 3.293-7.342 7.342v27.083c0 4.048 3.294 7.342 7.342 7.342h18.75c4.048 0 7.342-3.294 7.342-7.342V13.542ZM15.229 32.937a2.033 2.033 0 1 1 2.875 2.876 2.033 2.033 0 0 1-2.875-2.876Zm8.73-7.887h10.416a.992.992 0 0 1 0 1.983H23.958a.992.992 0 1 1 0-1.983Zm-8.73-.446a2.033 2.033 0 1 1 2.876 2.876 2.033 2.033 0 0 1-2.876-2.876Zm8.73-7.887h10.416a.992.992 0 1 1 0 1.983H23.958a.992.992 0 0 1 0-1.983Zm-8.73-.447a2.033 2.033 0 1 1 2.875 2.876 2.033 2.033 0 0 1-2.875-2.876Z" fill="#004B98" stroke="#fff" stroke-width=".1"/></g><defs><clipPath id="a"><path fill="#fff" d="M0 0h50v50H0z"/></clipPath></defs></svg>
